public/images/marketplace/purpleCheck.svg

<svg width="22" height="22" viewBox="0 0 22 22" fill="none" xmlns="http://www.w3.org/2000/svg">
<path d="M9.71927 15.2168L16.1818 8.75433L14.8984 7.471L9.71927 12.6502L7.10677 10.0377L5.82344 11.321L9.71927 15.2168ZM11.0026 20.1668C9.73455 20.1668 8.54288 19.9261 7.4276 19.4445C6.31233 18.9636 5.34219 18.3106 4.51719 17.4856C3.69219 16.6606 3.03922 15.6904 2.55827 14.5752C2.07672 13.4599 1.83594 12.2682 1.83594 11.0002C1.83594 9.73211 2.07672 8.54044 2.55827 7.42516C3.03922 6.30989 3.69219 5.33975 4.51719 4.51475C5.34219 3.68975 6.31233 3.03647 7.4276 2.55491C8.54288 2.07397 9.73455 1.8335 11.0026 1.8335C12.2707 1.8335 13.4623 2.07397 14.5776 2.55491C15.6929 3.03647 16.663 3.68975 17.488 4.51475C18.313 5.33975 18.966 6.30989 19.4469 7.42516C19.9285 8.54044 20.1693 9.73211 20.1693 11.0002C20.1693 12.2682 19.9285 13.4599 19.4469 14.5752C18.966 15.6904 18.313 16.6606 17.488 17.4856C16.663 18.3106 15.6929 18.9636 14.5776 19.4445C13.4623 19.9261 12.2707 20.1668 11.0026 20.1668Z" fill="#9885F7"/>
</svg>

<svg width="22" height="22" fill="none" xmlns="http://www.w3.org/2000/svg"><path d="m9.72 15.217 6.462-6.463-1.284-1.283-5.179 5.18-2.612-2.613-1.284 1.283 3.896 3.896Zm1.283 4.95a8.92 8.92 0 0 1-3.575-.723 9.25 9.25 0 0 1-2.91-1.958 9.252 9.252 0 0 1-1.96-2.91A8.922 8.922 0 0 1 1.836 11c0-1.268.24-2.46.722-3.575a9.25 9.25 0 0 1 1.96-2.91 9.264 9.264 0 0 1 2.91-1.96 8.931 8.931 0 0 1 3.575-.722c1.268 0 2.46.241 3.575.722a9.263 9.263 0 0 1 2.91 1.96 9.25 9.25 0 0 1 1.959 2.91A8.92 8.92 0 0 1 20.169 11a8.92 8.92 0 0 1-.722 3.575 9.25 9.25 0 0 1-1.959 2.91 9.25 9.25 0 0 1-2.91 1.96 8.92 8.92 0 0 1-3.575.722Z" fill="#9885F7"/></svg>
